www/assets/icons/crop_rotate.svg

<svg xmlns="http://www.w3.org/2000/svg" width="24" height="24" viewBox="0 0 24 24" fill='currentColor'><g clip-path="url(#a)"><path d="M7.47 21.49C4.2 19.93 1.86 16.76 1.5 13H0c.51 6.16 5.66 11 11.95 11 .23 0 .44-.02.66-.03L8.8 20.15zM12.05 0c-.23 0-.44.02-.66.04l3.81 3.81 1.33-1.33C19.8 4.07 22.14 7.24 22.5 11H24c-.51-6.16-5.66-11-11.95-11M16 14h2V8a2 2 0 0 0-2-2h-6v2h6zm-8 2V4H6v2H4v2h2v8a2 2 0 0 0 2 2h8v2h2v-2h2v-2z"/></g><defs><clipPath id="a"><path d="M0 0h24v24H0z"/></clipPath></defs></svg>

<svg width="24" height="24" viewBox="0 0 24 24" xmlns="http://www.w3.org/2000/svg" fill='currentColor'><g clip-path="url(#clip0_1616_4791)"><path d="M7.47 21.49C4.2 19.93 1.86 16.76 1.5 13H0C0.51 19.16 5.66 24 11.95 24C12.18 24 12.39 23.98 12.61 23.97L8.8 20.15L7.47 21.49ZM12.05 0C11.82 0 11.61 0.02 11.39 0.04L15.2 3.85L16.53 2.52C19.8 4.07 22.14 7.24 22.5 11H24C23.49 4.84 18.34 0 12.05 0ZM16 14H18V8C18 6.89 17.1 6 16 6H10V8H16V14ZM8 16V4H6V6H4V8H6V16C6 17.1 6.89 18 8 18H16V20H18V18H20V16H8Z"/></g><defs><clipPath id="clip0_1616_4791"><rect width="24" height="24"/></clipPath></defs></svg>
